!!!COM: Palestrina, Giovanni Perluigi da
!!!OPR: Petra sancta
!!!OTL: Gloria
**kern	**kern	**kern	**kern	**kern
*Ibass	*Itenor	*Itenor	*Icalto	*Icant
!Bassus	!Tenor 2	!Tenor 1	!Altus	!Cantus
*clefF4	*clefGv2	*clefGv2	*clefG2	*clefG2
*k[]	*k[]	*k[]	*k[]	*k[]
*A:aeo	*A:aeo	*A:aeo	*A:aeo	*A:aeo
*M4/2	*M4/2	*M4/2	*M4/2	*M4/2
=1	=1	=1	=1	=1
0r	0r	1.a	0r	1r
.	.	.	.	[1ee
.	.	2g	.	.
=2	=2	=2	=2	=2
0r	0r	2.a	2r	2ee]
.	.	.	1a	2ee
.	.	4g	.	.
.	.	2f	.	2dd
.	.	2e	2g	2cc
=3	=3	=3	=3	=3
0r	2r	2d	2.a	1ff
.	1a	2d	.	.
.	.	.	4b	.
.	.	2e	2cc	[1ee
.	2g	2e	2b	.
=4	=4	=4	=4	=4
0r	2.a	1A	2.cc	1ee]
.	4g	.	4b	.
.	2f	1r	2a	2dd
.	2e	.	2g	2cc
=5	=5	=5	=5	=5
0r	2d	1r	4f	2.dd
.	.	.	4g	.
.	2d	.	1a	.
.	.	.	.	4cc
.	2e	2r	.	1b
.	2e	[2e	2g#	.
=6	=6	=6	=6	=6
2r	2.A	2e]	0a	1.cc
1A	.	2f	.	.
.	4B	.	.	.
.	2c	2.e	.	.
2A	2c	.	.	2a
.	.	4f	.	.
=7	=7	=7	=7	=7
2G	2d	2g	0r	2b-
2F	2.f	2c	.	2a
1B-	.	1d	.	2f
.	4e	.	.	.
.	[2d	.	.	2g
=8	=8	=8	=8	=8
0A	2d]	1e	2r	[0a
.	4c	.	1e	.
.	4B	.	.	.
.	2.c	1r	.	.
.	.	.	2e	.
.	8d	.	.	.
.	8e	.	.	.
=9	=9	=9	=9	=9
1r	2f	2r	2d	1a]
.	2e	1A	2c	.
1D	1a	.	1f	1r
.	.	[2d	.	.
=10	=10	=10	=10	=10
1.A	1a	2d]	2e	1r
.	.	2c	2a	.
.	1r	2A	2cc	1ee
2G	.	2B	[2b	.
=11	=11	=11	=11	=11
2.A	1r	1c	4b]	2ff
.	.	.	4a	.
.	.	.	1a	2.ee
4c	.	.	.	.
1B	2r	1d	.	.
.	.	.	.	4dd
.	2d	.	2g#	[2dd
=12	=12	=12	=12	=12
1A	2f	2r	1a	2dd]
.	2.e	2A	.	2cc#
2G	.	2B-	1r	1dd
.	4d	.	.	.
2F	[2d	2A	.	.
=13	=13	=13	=13	=13
2E	2d]	2G	1r	2r
2E	2c#	2G	.	2ee
1D	1d	1A	2r	2ff
.	.	.	2a	2ff
=14	=14	=14	=14	=14
0r	2r	0r	2cc	2ee
.	2d	.	2.b	2.dd
.	1f	.	.	.
.	.	.	4a	4cc
.	.	.	[2a	4cc
.	.	.	.	8b
.	.	.	.	8a
=15	=15	=15	=15	=15
0r	1e	2r	2a]	4b
.	.	.	.	4cc
.	.	2e	2g#	2.b
.	2d	2f	1a	.
.	.	.	.	4a
.	2c	[2e	.	[2a
=16	=16	=16	=16	=16
1r	1B	4e]	2r	2a]
.	.	4d	.	.
.	.	1d	2d	2g#
2r	1A	.	2f	1a
2A	.	[2c	[2e	.
=17	=17	=17	=17	=17
2c	0r	2c]	2e]	1r
2.B	.	2G	2d	.
.	.	1A	2.c	2r
4A	.	.	.	.
[2A	.	.	.	2a
.	.	.	4d	.
=18	=18	=18	=18	=18
2A]	2r	1E	1e	2cc
2G#	2e	.	.	2.b
2.A	2f	1r	2r	.
.	.	.	.	4a
.	[2e	.	2c	[2a
4c	.	.	.	.
=19	=19	=19	=19	=19
1B	4e]	1r	1d	2a]
.	4d	.	.	.
.	1d	.	.	2g#
1A	.	2r	1e	1a
.	2c#	2e	.	.
=20	=20	=20	=20	=20
2r	2d	2f	0a	2r
2A	2c	2e	.	2ee
2D	2d	2d	.	2ff
2A	2e	[2c	.	[2ee
=21	=21	=21	=21	=21
2.F	1f	4c]	0a	2ee]
.	.	4A	.	.
.	.	2.a	.	1dd
4G	.	.	.	.
2A	1e	.	.	.
.	.	4g	.	.
2A	.	2e	.	2cc#
=22	=22	=22	=22	=22
[0D	2d	0f#	1a	0dd
.	2.d	.	.	.
.	.	.	2r	.
.	4d	.	.	.
.	2d	.	[2a	.
=23	=23	=23	=23	=23
1D]	2f#	0r	4a]	2r
.	.	.	4a	.
.	2f#	.	2a	2.dd
1r	1g	.	2b	.
.	.	.	.	4dd
.	.	.	2b	2dd
=24	=24	=24	=24	=24
0r	1c	1r	2.cc	2ee
.	.	.	.	2ee
.	.	.	4b	.
.	4d	2r	2.a	2.ff
.	4e	.	.	.
.	4f	[2d	.	.
.	4g	.	4g	4ee
=25	=25	=25	=25	=25
0r	1a	4d]	2f	2dd
.	.	4d	.	.
.	.	2d	1a	4dd
.	.	.	.	4cc
.	1r	2e	.	4b
.	.	.	.	4a
.	.	2e	2g#	2b
=26	=26	=26	=26	=26
1r	2r	1f	2a	1a
.	1d	.	1f	.
2r	.	1a	.	1r
[2d	2d	.	2f	.
=27	=27	=27	=27	=27
2d]	2e	1A	1e	2r
2c#	2e	.	.	1a
1d	2f#	2r	1d	.
.	2f#	[2d	.	2a
=28	=28	=28	=28	=28
1G	2.g	2d]	2r	2b
.	.	2d	1g	2b
.	4f	.	.	.
1c	4e	2e	.	2.cc
.	4d	.	.	.
.	[2c	2e	2g	.
.	.	.	.	4b
=29	=29	=29	=29	=29
1F	4c]	2.f	1a	2a
.	4B	.	.	.
.	2A	.	.	2cc
.	.	4e	.	.
2G	2B	2d	4g	2b
.	.	.	4f	.
2A	2e	2c	4e	[2a
.	.	.	4d	.
=30	=30	=30	=30	=30
1E	2r	1B	1e	2a]
.	2.e	.	.	2g#
1A	.	2A	1c#	[1a
.	4e	.	.	.
.	2e	2a	.	.
=31	=31	=31	=31	=31
2D	2d	2f	1r	0a]
2C#	2e	2e	.	.
4D	1f	1d	2r	.
4E	.	.	.	.
4F	.	.	[2a	.
4G	.	.	.	.
=32	=32	=32	=32	=32
2.A	2e	4c	4a]	2r
.	.	4A	4a	.
.	2.c	4c	2a	2.ee
4B	.	4d	.	.
1c	.	1e	2g	.
.	4d	.	.	4ee
.	4e	.	2a	2ee
.	4f	.	.	.
=33	=33	=33	=33	=33
1G	2.g	0r	1.b-	2dd
.	.	.	.	2ee
.	8f	.	.	.
.	8e	.	.	.
1r	[1d	.	.	[1ff
.	.	.	2a	.
=34	=34	=34	=34	=34
1r	2d]	0r	2f	2ff]
.	2e	.	2g	2ee
2r	1f	.	2a	2.cc
[2A	.	.	[2cc	.
.	.	.	.	4dd
=35	=35	=35	=35	=35
4A]	1e	2r	4cc]	1ee
4A	.	.	4cc	.
2A	.	2.e	2cc	.
2G	1r	.	2b	1ee
.	.	4e	.	.
2A	.	2e	2a	.
=36	=36	=36	=36	=36
2B	2r	2d	2a	0r
2c	2.c	2e	2g	.
2.F	.	[1f	[1a	.
.	4c	.	.	.
.	2d	.	.	.
4G	.	.	.	.
=37	=37	=37	=37	=37
1.A	4c	2f]	1a]	2r
.	4B	.	.	.
.	4c	2e	.	2.a
.	4d	.	.	.
.	2e	2c	1r	.
.	.	.	.	4a
2F	2d	2d	.	2a
=38	=38	=38	=38	=38
2G	2d	1e	1r	2g
2A	2c#	.	.	2e
1D	1d	2r	2r	4f
.	.	.	.	4g
.	.	2f	[2a	4a
.	.	.	.	4b
=39	=39	=39	=39	=39
0r	1A	2e	4a]	4cc
.	.	.	4a	4dd
.	.	2c	2a	1ee
.	2c	2e	2g	.
.	2A	2f	2a	4dd
.	.	.	.	4cc
=40	=40	=40	=40	=40
0r	1G	2.g	2b-	4ee
.	.	.	.	4dd
.	.	.	2b-	1dd
.	.	4f	.	.
.	1A	2e	2.a	.
.	.	2e	.	2cc#
.	.	.	4g	.
=41	=41	=41	=41	=41
2r	2r	1d	4f	1dd
.	.	.	4g	.
2.d	2.f	.	4a	.
.	.	.	4b-	.
.	.	2r	1a	1r
4d	4f	.	.	.
2c#	2e	[2a	.	.
=42	=42	=42	=42	=42
1d	1f	4a]	0r	0r
.	.	4a	.	.
.	.	2a	.	.
2A	2e	2a	.	.
[2c	[2e	4g	.	.
.	.	4f	.	.
=43	=43	=43	=43	=43
2c]	2e]	1g	0r	1r
2B	2d	.	.	.
2A	2c	2f	.	2r
2G	2B	2e	.	[2ee
=44	=44	=44	=44	=44
1F	1A	2r	1a	4ee]
.	.	.	.	4ee
.	.	2.a	.	2dd
1E	1r	.	2cc	[1ee
.	.	4a	.	.
.	.	2g	2b	.
=45	=45	=45	=45	=45
0r	0r	1a	1cc	2ee]
.	.	.	.	2a
.	.	2d	2a	1ff
.	.	[2a	[2cc	.
=46	=46	=46	=46	=46
0r	0r	2a]	2cc]	1ee
.	.	2g	2b	.
.	.	2f	2a	4dd
.	.	.	.	4cc
.	.	2e	2g	[2cc
=47	=47	=47	=47	=47
1r	1f	1d	2a	2cc]
.	.	.	4g	2b
.	.	.	4f	.
2r	2e	1c	2g	[1cc
[2F	[2f	.	[2a	.
=48	=48	=48	=48	=48
2F]	2f]	2r	2a]	1cc]
2E	2g	1c	2g	.
1F	1a	.	2f	2r
.	.	2A	[2c	[2ff
=49	=49	=49	=49	=49
2.C	[0g	1c	2c]	2ff]
.	.	.	1cc	1ee
4D	.	.	.	.
4E	.	1G	.	.
4F	.	.	.	.
2G	.	.	2b	2dd
=50	=50	=50	=50	=50
1C	1g]	2r	1cc	1ee
.	.	1c	.	.
2r	1r	.	2g	[1dd
[2G	.	[2B	[2g	.
=51	=51	=51	=51	=51
2G]	1d	2B]	2g]	0dd]
2F#	.	2A	2a	.
1G	2d	2.B	1g	.
.	[2g	.	.	.
.	.	4G	.	.
=52	=52	=52	=52	=52
1D	2g]	1d	1a	2r
.	2f#	.	.	2.dd
1r	1g	2G	2r	.
.	.	.	.	4dd
.	.	[2g	[2b	2dd
=53	=53	=53	=53	=53
0r	1e	4g]	4b]	2ee
.	.	4g	4b	.
.	.	2g	2b	2ee
.	1r	2a	2cc	2ff
.	.	2g	2b	2ee
=54	=54	=54	=54	=54
0r	0r	2f	2a	2dd
.	.	2e	2g	2.cc
.	.	1f	4a	.
.	.	.	4b	4b
.	.	.	4cc	[2a
.	.	.	4a	.
=55	=55	=55	=55	=55
1r	1r	1e	1b	2a]
.	.	.	.	2g#
2r	2r	1r	1a	[1a
[2d	[2f	.	.	.
=56	=56	=56	=56	=56
4d]	4f]	2r	0r	1a]
4d	4f	.	.	.
2d	2f	1a	.	.
2.c	2.e	.	.	1r
.	.	2g	.	.
4B	4d	.	.	.
=57	=57	=57	=57	=57
2A	2c	2f	1r	0r
2G	2B	2.g	.	.
2A	2c	.	2r	.
.	.	4f	.	.
2B-	2d	[2f	[2b-	.
=58	=58	=58	=58	=58
1G	1g	2f]	4b-]	0r
.	.	.	4b-	.
.	.	2e	2b-	.
2F	2c	1f	2.a	.
4D	[2d	.	.	.
4E	.	.	4g	.
=59	=59	=59	=59	=59
4F	2d]	1a	2f	0r
4G	.	.	.	.
2A	2c#	.	2e	.
2D	2d	2a	2f	.
[2d	2G	2b-	2g	.
=60	=60	=60	=60	=60
4d]	1A	2.a	1e	1r
8c#	.	.	.	.
8B	.	.	.	.
2c#	.	.	.	.
.	.	4g	.	.
1d	1r	2.f	2d	2r
.	.	.	[2a	[2ff
.	.	4e	.	.
=61	=61	=61	=61	=61
1D	1r	1d	4a]	4ff]
.	.	.	4a	4ff
.	.	.	2b	2ff
1A	2r	2.c	2.cc	2.ee
.	4A	.	.	.
.	4B	4d	4b	4dd
=62	=62	=62	=62	=62
0r	4c	1e	2a	2cc
.	4d	.	.	.
.	2e	.	2g#	2b
.	2A	1r	2a	2cc
.	[2a	.	2d	2dd
=63	=63	=63	=63	=63
1r	2a]	1r	1e	1b
.	2g#	.	.	.
1D	2a	2r	2f	1a
.	2d	[2f	[2a	.
=64	=64	=64	=64	=64
2.F	2c	4f]	4a]	2r
.	.	4f	4a	.
.	2.A	2f	2a	2.a
4G	.	.	.	.
[1A	.	2.e	2.cc	.
.	4B	.	.	4a
.	[2c	.	.	2a
.	.	4d	4b	.
=65	=65	=65	=65	=65
2A]	4c]	2c	2a	1ee
.	4A	.	.	.
2G	2e	2B	2.b	.
2F	1f	2c	.	1a
.	.	.	4a	.
2D	.	2d	[2a	.
=66	=66	=66	=66	=66
0E	[0e	0B	2a]	0ee
.	.	.	4g#	.
.	.	.	4f#	.
.	.	.	1g#	.
=67	=67	=67	=67	=67
0A	0e]	0A	0a	0cc#
=68	=68	=68	=68	=68
0D	0f	0d	0a	0r
=69	=69	=69	=69	=69
1A	1e	1c	2.a	0ee
.	.	.	4b	.
1A	2e	4A	1cc	.
.	.	4B	.	.
.	2a	4c	.	.
.	.	4d	.	.
=70	=70	=70	=70	=70
0r	2g#	2e	2b	1ee
.	2a	2a	2cc	.
.	2e	2g	2b	2ee
.	[2a	2f	2a	2dd
=71	=71	=71	=71	=71
0E	2a]	0e	1b	2ee
.	4g#	.	.	2ee
.	4f#	.	.	.
.	1g#	.	2b	1ee
.	.	.	2b	.
=72	=72	=72	=72	=72
1A	2a	1e	1cc	0ee
.	2A	.	.	.
2A	1e	1c	1a	.
2A	.	.	.	.
=73	=73	=73	=73	=73
2G	2e	2B	2r	0r
2F	2d	2A	1a	.
2.E	2c	1e	.	.
.	[2B	.	[2g	.
4F	.	.	.	.
=74	=74	=74	=74	=74
2G	2B]	2d	2g]	1r
2A	1A	2c	2f	.
1E	.	1B	1e	1b
.	2G#	.	.	.
=75	=75	=75	=75	=75
1A	1A	2A	2e	0cc
.	.	2e	1a	.
1r	2r	1f	.	.
.	[2f	.	2a	.
=76	=76	=76	=76	=76
0r	2f]	1B-	1.b-	1dd
.	2f	.	.	.
.	2g	1B-	.	1dd
.	2f	.	2a	.
=77	=77	=77	=77	=77
0r	2e	0c	2g	0cc
.	1f	.	2f	.
.	.	.	1g	.
.	2e	.	.	.
=78	=78	=78	=78	=78
0D	1f	1d	1f	0a
.	1d	1f	2r	.
.	.	.	2a	.
=79	=79	=79	=79	=79
1A	1c	1e	1a	1r
1A	2A	2e	2a	1ee
.	2a	2A	2cc	.
=80	=80	=80	=80	=80
1r	2a	1e	2.b	0ee
.	4g#	.	.	.
.	4f#	.	4a	.
1E	1g#	1e	1b	.
=81	=81	=81	=81	=81
1A	0a	2r	1a	1cc
.	.	2.e	.	.
1A	.	.	2r	1ee
.	.	4d	.	.
.	.	2c	2e	.
=82	=82	=82	=82	=82
0r	1r	2B	2g	2dd
.	.	2A	1a	2cc
.	2r	1e	.	2.b
.	2e	.	2g#	.
.	.	.	.	4cc
=83	=83	=83	=83	=83
2r	2d	2f	1a	2dd
2A	2c	2e	.	1ee
2G	2B	2g	2r	.
2F	2A	[2a	2a	2dd
=84	=84	=84	=84	=84
1E	0e	2a]	2b	0ee
.	.	2g#	2b	.
1A	.	[1a	1cc	.
=85	=85	=85	=85	=85
1.D	1.f#	1a]	2a	1.dd
.	.	.	1a	.
.	.	[1d	.	.
2D	2f#	.	2a	2dd
=86	=86	=86	=86	=86
0D	0f#	2d]	0a	0dd
.	.	2d	.	.
.	.	2d	.	.
.	.	[2d	.	.
=87	=87	=87	=87	=87
1.G	1.g	2d]	1.b	0r
.	.	2d	.	.
.	.	2d	.	.
2G	2g	2d	2b	.
=88	=88	=88	=88	=88
2G	2g	2e	2b	0r
2G	2g	2d	2b	.
2A	1e	4c	2cc	.
.	.	4A	.	.
2G	.	4B	[2b	.
.	.	4c	.	.
=89	=89	=89	=89	=89
1F	2f	4d	4b]	1r
.	.	4c	4a	.
.	2d	4B	1a	.
.	.	4A	.	.
1E	1e	1B	.	2r
.	.	.	2g#	[2ee
=90	=90	=90	=90	=90
0A	1.c#	1A	1a	2ee]
.	.	.	.	2ee
.	.	1r	2r	2ee
.	2c#	.	2a	2ee
=91	=91	=91	=91	=91
0r	2d	1r	2a	2ff
.	2e	.	2g	2.ee
.	2f#	2r	2a	.
.	.	.	.	4dd
.	2g	2g	[2b	[2dd
=92	=92	=92	=92	=92
1r	1e	1g	2b]	2dd]
.	.	.	2g	2cc#
2r	2d	1f	1a	[1dd
2d	2f	.	.	.
=93	=93	=93	=93	=93
1d	1f	2d	2.a	1dd]
.	.	1a	.	.
.	.	.	4b	.
2.c	2.e	.	1cc	1r
.	.	2g	.	.
4B	4d	.	.	.
=94	=94	=94	=94	=94
2A	2c	2f	0r	0r
2G	2B	4e	.	.
.	.	4d	.	.
2A	2c	2.f	.	.
[2B-	[2d	.	.	.
.	.	4e	.	.
=95	=95	=95	=95	=95
4B-]	4d]	1d	2r	0r
4A	4e	.	.	.
4G	1f	.	1b-	.
4F	.	.	.	.
1G	.	1B-	.	.
.	2e	.	2b-	.
=96	=96	=96	=96	=96
1F	1f	1c	2.a	2r
.	.	.	.	1ff
.	.	.	4g	.
1r	1d	2r	2a	.
.	.	2f	2b	2ff
=97	=97	=97	=97	=97
0r	2c	2g	2.cc	2.ee
.	4A	2a	.	.
.	4B	.	4b	4dd
.	4c	2.e	2a	2cc
.	4d	.	.	.
.	2e	.	2g#	2b
.	.	4d	.	.
=98	=98	=98	=98	=98
0r	2A	2e	0a	2cc
.	4d	4f	.	2.dd
.	4e	4e	.	.
.	4f	4d	.	.
.	4g	4e	.	4cc
.	[2a	2f	.	4b
.	.	.	.	4a
=99	=99	=99	=99	=99
1r	2a]	1e	2r	1b
.	2g#	.	1e	.
[1A	2a	[1c	.	1a
.	[2a	.	2e	.
=100	=100	=100	=100	=100
2A]	2a]	2c]	1.e	1r
2A	2a	2c	.	.
1A	1a	2c	.	2r
.	.	2e	2c	[2a
=101	=101	=101	=101	=101
0r	1r	2f	2d	2a]
.	.	2c	2e	2a
.	2r	1d	1f	1a
.	2f	.	.	.
=102	=102	=102	=102	=102
2r	2g	1c	1e	1cc
2A	2a	.	.	.
2B	1g	1r	2r	2dd
2c	.	.	2cc	2ee
=103	=103	=103	=103	=103
1d	2f	2r	2a	1ff
.	2d	2f	2b	.
2c	2e	2g	1cc	2ee
2F	2f	2a	.	2a
=104	=104	=104	=104	=104
2G	2e	2g	2b	2b
2A	2e	2c	2.a	2cc
2B-	1d	2f	.	2dd
.	.	.	8g	.
.	.	.	8f	.
2B-	.	4e	2g	2dd
.	.	4d	.	.
=105	=105	=105	=105	=105
1A	2r	2e	0a	4cc
.	.	.	.	4dd
.	2c	2e	.	4ee
.	.	.	.	8dd
.	.	.	.	8ee
1r	2d	2d	.	2ff
.	2e	2c#	.	[2ee
=106	=106	=106	=106	=106
1r	2f	1.d	2r	2ee]
.	2f	.	2d	2dd
1A	1e	.	1a	1ee
.	.	2c	.	.
=107	=107	=107	=107	=107
1d	2r	1B-	2a	0r
.	2d	.	2g	.
2d	2f	1A	[1a	.
2c#	4e	.	.	.
.	4e	.	.	.
=108	=108	=108	=108	=108
2d	2.f	0r	2a]	0r
2d	.	.	2b	.
.	4f	.	.	.
2A	2e	.	2.cc	.
[2c	[2e	.	.	.
.	.	.	4b	.
=109	=109	=109	=109	=109
2c]	2e]	1r	2a	0r
2B	2d	.	2g	.
2A	2c	2r	4f	.
.	.	.	4e	.
2G	2B	2e	[2e	.
=110	=110	=110	=110	=110
1F	1A	1a	2e]	2r
.	.	.	2d	2a
1E	1B	2a	2e	1ee
.	.	2g#	2b	.
=111	=111	=111	=111	=111
0r	1A	2a	2cc	2ee
.	.	2a	2cc	2ee
.	1r	2d	2a	2.ff
.	.	[2a	[2cc	.
.	.	.	.	4ff
=112	=112	=112	=112	=112
0r	0r	4a]	4cc]	2ee
.	.	4g	4b	.
.	.	4f	4a	1ff
.	.	4e	4g	.
.	.	2d	1a	.
.	.	2c#	.	2ee
=113	=113	=113	=113	=113
0r	0r	1d	2f	2dd
.	.	.	1a	2cc
.	.	1e	.	1b
.	.	.	2g#	.
=114	=114	=114	=114	=114
1F	2r	1A	2a	2.a
.	2a	.	2f	.
.	.	.	.	4b
2F	2a	2r	2f	1cc
2E	2g	2c	2g	.
=115	=115	=115	=115	=115
2F	2f	2c	2.a	2r
2F	2f	2A	.	1ff
.	.	.	4a	.
1C	2g	2c	1g	.
.	2c	2c	.	[2ee
=116	=116	=116	=116	=116
1r	2c	1G	2r	2ee]
.	2B	.	2g	2dd
2r	2c	2r	2g	1ee
2c	2c	2g	2e	.
=117	=117	=117	=117	=117
2c	1G	2g	2.g	1dd
2B	.	2d	.	.
.	.	.	4g	.
2c	2r	2.e	1g	2.cc
2c	2c	.	.	.
.	.	4f	.	8b
.	.	.	.	8a
=118	=118	=118	=118	=118
1G	2d	1g	2r	1b
.	2e	.	2g	.
1r	1f	1r	1a	2r
.	.	.	.	2cc
=119	=119	=119	=119	=119
0r	2d	0r	2b	2dd
.	2c	.	2cc	2ee
.	1d	.	2a	1ff
.	.	.	2b	.
=120	=120	=120	=120	=120
0r	1A	1r	4cc	2.ee
.	.	.	4b	.
.	.	.	4a	.
.	.	.	4g	4ee
.	1r	2r	4f	2dd
.	.	.	4g	.
.	.	2c	[2a	2cc
=121	=121	=121	=121	=121
1r	0r	2d	2a]	1b
.	.	2e	2g#	.
1F	.	2f	4a	1a
.	.	.	4b	.
.	.	2f	4cc	.
.	.	.	4a	.
=122	=122	=122	=122	=122
2G	2r	2d	2b-	0r
2A	2c	2.f	1a	.
1B-	2.d	.	.	.
.	.	4e	.	.
.	.	2d	2g	.
.	4e	.	.	.
=123	=123	=123	=123	=123
2.A	2f	2.c	1a	2r
.	2e	.	.	2cc
4G	.	4B	.	.
2F	2d	2A	1r	2dd
2E	[2c	2G	.	2ee
=124	=124	=124	=124	=124
1D	4c]	1F	2r	1ff
.	4B	.	.	.
.	4B	.	2f	.
.	4A	.	.	.
1C	1c	2r	2g	2.ee
.	.	2c	2a	.
.	.	.	.	4ee
=125	=125	=125	=125	=125
0r	0r	2d	2b-	2dd
.	.	2e	2g	1cc
.	.	1f	2a	.
.	.	.	[2a	4b
.	.	.	.	4a
=126	=126	=126	=126	=126
1r	2r	2.e	2a]	2b
.	2c	.	2g	2cc
.	.	4e	.	.
2r	2d	2d	2f	4b
.	.	.	.	4a
2C	2e	2c	2e	[2a
=127	=127	=127	=127	=127
2D	2f	1B	1r	2a]
2E	2e	.	.	2g#
1F	2c	[1A	2r	[1a
.	[2f	.	2c	.
=128	=128	=128	=128	=128
2D	2f]	0A]	2d	1a]
2C#	1e	.	2e	.
1D	.	.	1f	2r
.	[2d	.	.	2dd
=129	=129	=129	=129	=129
1A	2d]	[0A	2.e	1ee
.	2c#	.	.	.
.	.	.	4e	.
[1D	2.d	.	2d	2.ff
.	.	.	2A	.
.	4e	.	.	4ee
=130	=130	=130	=130	=130
1D]	1f	1A]	1a	1dd
[1A	[1e	[1A	[1a	[1cc#
=131	=131	=131	=131	=131
1A]	1e]	1A]	1a]	1cc#]
==	==	==	==	==
*-	*-	*-	*-	*-
!!!CDT: 1525/^1526/-1594/2/2
!!!OCY: Italia
!!!AGN: Mass (Parody)
!!!AST: renaissance, vocal
!!!ASW: Madrigal 1561 (Palestrina)
!!!PWK: Masses, Book 10
!!!RNB: Cadence finals: D
!!!YOR: Le Opere Complete, v. 27, p. 52
!!!YOO: Rome, Italy: Fratelli Scalera
!!!END: 1992//
!!!EED: John Miller
!!!YEC: Copyright 2000, John Miller
!!!YEN: United States of America
!!!YEM: Rights to all derivative electronic formats reserved.
!!!YEM: Refer to licensing agreement for further details.
!!!YEM: This file must be accompanied by the licensing agreement.
!!!YEM: A copy of the licensing agreement may be found at http://www.music-cog.ohio-state.edu/HumdrumDatabases/Palestrina/license.txt
!!!EMD: converted to Humdrum by Bret Aarden
